images_elementary_svg/cmd/lc_freezepanesfirstrow.svg

<svg height="24" width="24" xmlns="http://www.w3.org/2000/svg" xmlns:xlink="http://www.w3.org/1999/xlink"><linearGradient id="a" gradientUnits="userSpaceOnUse" x1="11.001243" x2="11.001243" xlink:href="#b" y1="2.268861" y2="19.728327"/><linearGradient id="b"><stop offset="0" stop-color="#fff"/><stop offset=".06316455" stop-color="#fff" stop-opacity=".235294"/><stop offset=".95056331" stop-color="#fff" stop-opacity=".156863"/><stop offset="1" stop-color="#fff" stop-opacity=".392157"/></linearGradient><linearGradient id="c" gradientUnits="userSpaceOnUse" x1="1.571521" x2="22.389223" y1="-4.607497" y2="26"><stop offset="0" stop-color="#cdf87e"/><stop offset=".26238" stop-color="#a2e34f"/><stop offset=".66093999" stop-color="#68b723"/><stop offset="1" stop-color="#1d7e0d"/></linearGradient><linearGradient id="d" gradientTransform="matrix(.47619048 0 0 .25 .095239 2.999819)" gradientUnits="userSpaceOnUse" x1="23.954144" x2="23.954144" y1="15.999304" y2="19.963179"><stop offset="0"/><stop offset="1" stop-opacity="0"/></linearGradient><linearGradient id="e" gradientTransform="matrix(.48483606 0 0 .5270602 -.165352 -.400235)" gradientUnits="userSpaceOnUse" x1="23.99999" x2="23.99999" xlink:href="#b" y1="4.999989" y2="43"/><linearGradient id="f" gradientTransform="matrix(.44576989 0 0 .44993664 .801525 -.024539)" gradientUnits="userSpaceOnUse" x1="25.132275" x2="25.132275" y1="15.499894" y2="48.395687"><stop offset="0" stop-color="#fafafa"/><stop offset="1" stop-color="#e2e1de"/></linearGradient><linearGradient id="g" gradientTransform="matrix(0 -1 1 0 .000182 24.000001)" gradientUnits="userSpaceOnUse" x1="11.001243" x2="11.001243" xlink:href="#b" y1="2.268861" y2="19.728327"/><rect fill="url(#f)" height="5.000182" rx=".527778" ry=".555556" width="19" x="2.000001" y="1.999818"/><path d="m7 2.498774 13.440184-.000182v19.501226l-13.440184.000182z" fill="none" stroke="url(#e)" stroke-linecap="round" stroke-linejoin="round" stroke-width="1.100222"/><path d="m2 6.999818h20.000001v1h-20.000001z" fill="url(#d)" opacity=".15"/><path d="m21 6.1640625v15.2988285c0 .305795-.231314.537109-.537109.537109h-13.462891v1h13.462891c.842497 0 1.537109-.694612 1.537109-1.537109v-15.2988285z" opacity=".3"/><path d="m2.5371094 1.5c-.574145 0-1.0371094.4629634-1.0371094 1.0371094v3.9628906s-.084746-4.8468005-.084746-.5185545c-.0000001.574144.3867026 1.04055.960838 1.037109l4.623908-.050847v.0322925h14.5v-4.4628906c0-.574146-.462964-1.0371094-1.037109-1.0371094z" fill="url(#c)"/><path d="m2.5371094 1c-.842497 0-1.5371094.6946124-1.5371094 1.5371094v4.4628906h1 10.472656 9.527344v-4.4628906c0-.842497-.694612-1.5371094-1.537109-1.5371094zm0 1h17.9257816c.305795 0 .537109.2313144.537109.5371094v3.4628906h-19v-3.4628906c0-.305795.2313144-.5371094.5371094-.5371094z" fill="#126400" opacity=".4"/><path d="m2.500001 2.499818v3h18v-3z" fill="none" opacity=".5" stroke="url(#a)" stroke-linecap="round" stroke-linejoin="round"/><path d="m11.000001 7h1v14.999818h-1z" opacity=".321"/><path d="m16.000002 7h1v14.999818h-1z" opacity=".321"/><path d="m2 9.999818h4.000001v1h-4.000001z" fill="#434343" opacity=".321"/><path d="m7.000001 9.999818h4v1h-4z" opacity=".321"/><path d="m12.000001 9.999818h4v1h-4z" opacity=".321"/><path d="m17.000002 9.999818h4v1h-4z" opacity=".321"/><path d="m2 13.999818h4.000001v1h-4.000001z" fill="#434343" opacity=".321"/><path d="m6.000001 7h1v14.999818h-1z" fill="#444" opacity=".4"/><path d="m7.000001 13.999818h4v1h-4z" opacity=".321"/><path d="m12.000001 13.999818h4v1h-4z" opacity=".321"/><path d="m17.000002 13.999818h4v1h-4z" opacity=".321"/><path d="m2 17.999819h4.000001v1h-4.000001z" fill="#434343" opacity=".321"/><path d="m7.000001 17.999819h4v1h-4z" opacity=".321"/><path d="m12.000001 17.999819h4v1h-4z" opacity=".321"/><path d="m17.000002 17.999819h4v1h-4z" opacity=".321"/><g fill="#126400"><path d="m6.000001 1.999818h1v4.000182h-1z" opacity=".4"/><path d="m11.000001 1.999818h1v4.000182h-1z" opacity=".4"/><path d="m16.000002 1.999818h1v4.000182h-1z" opacity=".4"/></g><path d="m2.5 5.5h3v-2.940678h-3z" fill="none" opacity=".5" stroke="url(#g)" stroke-linecap="round" stroke-linejoin="round"/><path d="m1 7v14.462891c0 .842929.6941798 1.537109 1.5371094 1.537109h4.4628906v-1h-4.4628906c-.3053625 0-.5371094-.231747-.5371094-.537109v-14.462891z" opacity=".3"/></svg>

<svg xmlns="http://www.w3.org/2000/svg" xmlns:xlink="http://www.w3.org/1999/xlink" height="24" width="24"><defs><linearGradient id="a" gradientTransform="matrix(.4922 0 0 .4584 4.51 -4.794)" gradientUnits="userSpaceOnUse" x1="23.732" x2="23.732" y1="5.394" y2="39.735"><stop offset="0" stop-color="#90dbec"/><stop offset=".262" stop-color="#55c1ec"/><stop offset=".705" stop-color="#3689e6"/><stop offset="1" stop-color="#2b63a0"/></linearGradient><linearGradient xlink:href="#a" id="g" x1="10.873" y1=".191" x2="12" y2="11" gradientUnits="userSpaceOnUse"/><linearGradient id="c" gradientTransform="matrix(.4458 0 0 .45 .802 -.025)" gradientUnits="userSpaceOnUse" x1="25.132" x2="25.132" y1="15.5" y2="48.396"><stop offset="0" stop-color="#fafafa"/><stop offset="1" stop-color="#e2e1de"/></linearGradient></defs><linearGradient id="h" gradientUnits="userSpaceOnUse" x1="11.001" x2="11.001" xlink:href="#b" y1="2.269" y2="19.728"/><linearGradient id="b"><stop offset="0" stop-color="#fff"/><stop offset=".063" stop-color="#fff" stop-opacity=".235"/><stop offset=".951" stop-color="#fff" stop-opacity=".157"/><stop offset="1" stop-color="#fff" stop-opacity=".392"/></linearGradient><linearGradient id="f" gradientTransform="matrix(.4762 0 0 .25 .095 3)" gradientUnits="userSpaceOnUse" x1="23.954" x2="23.954" y1="15.999" y2="19.963"><stop offset="0"/><stop offset="1" stop-opacity="0"/></linearGradient><linearGradient id="e" gradientTransform="matrix(.4848 0 0 .527 -.165 -.4)" gradientUnits="userSpaceOnUse" x1="24" x2="24" xlink:href="#b" y1="5" y2="43"/><linearGradient id="d" gradientTransform="matrix(.4458 0 0 .45 .802 -.025)" gradientUnits="userSpaceOnUse" x1="25.132" x2="25.132" y1="15.5" y2="48.396"><stop offset="0" stop-color="#fafafa"/><stop offset="1" stop-color="#e2e1de"/></linearGradient><linearGradient id="i" gradientTransform="rotate(-90 12 12)" gradientUnits="userSpaceOnUse" x1="11.001" x2="11.001" xlink:href="#b" y1="2.269" y2="19.728"/><rect height="20" rx=".528" ry=".556" width="19" x="2" y="2" fill="url(#c)"/><rect fill="url(#d)" height="5" rx=".528" ry=".556" width="19" x="2" y="2"/><path d="M7 2.5h13.44V22H7z" fill="none" stroke="url(#e)" stroke-linecap="round" stroke-linejoin="round" stroke-width="1.1"/><path d="M2 7h20v1H2z" fill="url(#f)" opacity=".15"/><path d="M21 6.164v15.3c0 .305-.23.536-.537.536H7v1h13.463c.842 0 1.537-.695 1.537-1.537v-15.3z" opacity=".3"/><path d="M2.537 1.5c-.574 0-1.037.463-1.037 1.037V6.5s-.085-4.847-.085-.52c0 .576.387 1.042.96 1.04L7 6.967V7h14.5V2.537c0-.574-.463-1.037-1.037-1.037z" fill="url(#g)"/><path d="M2.537 1C1.695 1 1 1.695 1 2.537V7h21V2.537C22 1.695 21.305 1 20.463 1zm0 1h17.926c.306 0 .537.23.537.537V6H2V2.537C2 2.23 2.23 2 2.537 2z" fill-opacity=".49" fill="#004372"/><path d="M2.5 2.5v3h18v-3z" fill="none" opacity=".5" stroke="url(#h)" stroke-linecap="round" stroke-linejoin="round"/><path d="M11 7h1v15h-1zm5 0h1v15h-1z" opacity=".321"/><path d="M2 10h4v1H2z" fill="#434343" opacity=".321"/><path d="M7 10h4v1H7zm5 0h4v1h-4zm5 0h4v1h-4z" opacity=".321"/><path d="M2 14h4v1H2z" fill="#434343" opacity=".321"/><path d="M6 7h1v15H6z" fill="#444" opacity=".4"/><path d="M7 14h4v1H7zm5 0h4v1h-4zm5 0h4v1h-4z" opacity=".321"/><path d="M2 18h4v1H2z" fill="#434343" opacity=".321"/><path d="M7 18h4v1H7zm5 0h4v1h-4zm5 0h4v1h-4z" opacity=".321"/><path d="M6 2h1v4H6zm5 0h1v4h-1zm5 0h1v4h-1z" opacity=".4" fill="#004172" fill-opacity=".772"/><path d="M2.5 5.5h3V2.56h-3z" fill="none" opacity=".5" stroke="url(#i)" stroke-linecap="round" stroke-linejoin="round"/><path d="M1 7v14.463C1 22.306 1.694 23 2.537 23H7v-1H2.537C2.232 22 2 21.768 2 21.463V7z" opacity=".3"/></svg>
